X: 43252
T: Wolves A-Howlin'
R: reel
M: 4/4
K: Amajor
|:e3 e e2 ee|e2 c2 B2 A2|ABcA BAEF|AcBA F2 E2:|
E2 EF A2 AB|cABA F2 E2|ABcA BAFE|AcBA F2 E2|
E2 EF A2 AB|cABA F2 E2|e2 c2 BAEF|AcBA F2 E2|

